static/fa/svgs/solid/house-flood-water-circle-arrow-right.svg

<svg xmlns="http://www.w3.org/2000/svg" viewBox="0 0 640 512"><!--! Font Awesome Free 6.1.1 by @fontawesome - https://fontawesome.com License - https://fontawesome.com/license/free (Icons: CC BY 4.0, Fonts: SIL OFL 1.1, Code: MIT License) Copyright 2022 Fonticons, Inc. --><path d="M288 144C288 223.5 223.5 288 144 288C64.47 288 0 223.5 0 144C0 64.47 64.47 .0002 144 .0002C223.5 .0002 288 64.47 288 144zM140.7 99.31L169.4 128H80C71.16 128 64 135.2 64 144C64 152.8 71.16 160 80 160H169.4L140.7 188.7C134.4 194.9 134.4 205.1 140.7 211.3C146.9 217.6 157.1 217.6 163.3 211.3L219.3 155.3C225.6 149.1 225.6 138.9 219.3 132.7L163.3 76.69C157.1 70.44 146.9 70.44 140.7 76.69C134.4 82.94 134.4 93.07 140.7 99.31V99.31zM301 64.42L381.2 6.12C392.4-2.04 407.6-2.04 418.8 6.12L594.8 134.1C606 142.3 610.7 156.7 606.4 169.9C602.1 183.1 589.9 192 576 192H559.4L559.7 276.4C557.5 274.8 555.3 273.2 553.2 271.5C531 252.8 498.9 251.4 475.2 268.1C457.2 280.5 435 288.5 416 288.5C396.4 288.5 375.2 280.8 356.8 268.1C334.8 252.6 305.3 252.6 283.2 268.1C273.2 274.1 262 280.7 250.2 284.3C292.6 252.2 319.1 201.3 319.1 144C319.1 115.4 313.2 88.32 301 64.42V64.42zM416 336C442.9 336 471.4 325.2 493.4 309.9L493.5 309.9C505.4 301.4 521.5 302.1 532.7 311.6C547 323.5 565.2 332.6 583.3 336.8C600.5 340.8 611.2 358.1 607.2 375.3C603.2 392.5 585.1 403.2 568.7 399.2C544.2 393.4 523.9 382.6 510.5 374.2C481.5 389.7 449 400 416 400C384.1 400 355.4 390.1 335.6 381.1C329.7 378.5 324.5 375.8 320 373.4C315.5 375.8 310.3 378.5 304.4 381.1C284.6 390.1 255.9 400 224 400C190.1 400 158.5 389.7 129.5 374.2C116.1 382.6 95.79 393.4 71.27 399.2C54.06 403.2 36.85 392.5 32.84 375.3C28.83 358.1 39.53 340.8 56.74 336.8C74.84 332.6 92.96 323.5 107.3 311.6C118.5 302.1 134.6 301.4 146.5 309.9L146.6 309.9C168.7 325.2 197.1 336 224 336C251.5 336 279 325.4 301.5 309.9C312.6 302 327.4 302 338.5 309.9C360.1 325.4 388.5 336 416 336H416zM338.5 421.9C360.1 437.4 388.5 448 416 448C442.9 448 471.4 437.2 493.4 421.9L493.5 421.9C505.4 413.4 521.5 414.1 532.7 423.6C547 435.5 565.2 444.6 583.3 448.8C600.5 452.8 611.2 470.1 607.2 487.3C603.2 504.5 585.1 515.2 568.7 511.2C544.2 505.4 523.9 494.6 510.5 486.2C481.5 501.7 449 512 416 512C384.1 512 355.4 502.1 335.6 493.1C329.7 490.5 324.5 487.8 320 485.4C315.5 487.8 310.3 490.5 304.4 493.1C284.6 502.1 255.9 512 224 512C190.1 512 158.5 501.7 129.5 486.2C116.1 494.6 95.79 505.4 71.27 511.2C54.06 515.2 36.85 504.5 32.84 487.3C28.83 470.1 39.53 452.8 56.74 448.8C74.84 444.6 92.96 435.5 107.3 423.6C118.5 414.1 134.6 413.4 146.5 421.9L146.6 421.9C168.7 437.2 197.1 448 224 448C251.5 448 279 437.4 301.5 421.9C312.6 414 327.4 414 338.5 421.9H338.5z"/></svg>

<svg xmlns="http://www.w3.org/2000/svg" viewBox="0 0 640 512"><!--! Font Awesome Free 6.1.1 by @fontawesome - https://fontawesome.com License - https://fontawesome.com/license/free (Icons: CC BY 4.0, Fonts: SIL OFL 1.1, Code: MIT License) Copyright 2022 Fonticons, Inc.--><path d="M288 144c0 79.5-64.5 144-144 144C64.47 288 0 223.5 0 144 0 64.47 64.47 0 144 0c79.5 0 144 64.47 144 144zM140.7 99.31 169.4 128H80c-8.84 0-16 7.2-16 16s7.16 16 16 16h89.4l-28.7 28.7c-6.3 6.2-6.3 16.4 0 22.6 6.2 6.3 16.4 6.3 22.6 0l56-56c6.3-6.2 6.3-16.4 0-22.6l-56-56.01c-6.2-6.25-16.4-6.25-22.6 0-6.3 6.25-6.3 16.38 0 22.62zM301 64.42l80.2-58.3c11.2-8.16 26.4-8.16 37.6 0l176 127.98c11.2 8.2 15.9 22.6 11.6 35.8-4.3 13.2-16.5 22.1-30.4 22.1h-16.6l.3 84.4c-2.2-1.6-4.4-3.2-6.5-4.9-22.2-18.7-54.3-20.1-78-3.4-18 12.4-40.2 20.4-59.2 20.4-19.6 0-40.8-7.7-59.2-20.4-22-15.5-51.5-15.5-73.6 0-10 6-21.2 12.6-33 16.2 42.4-32.1 68.9-83 68.9-140.3 0-28.6-5.9-55.68-18.1-79.58zM416 336c26.9 0 55.4-10.8 77.4-26.1h.1c11.9-8.5 28-7.8 39.2 1.7 14.3 11.9 32.5 21 50.6 25.2 17.2 4 27.9 21.3 23.9 38.5s-22.1 27.9-38.5 23.9c-24.5-5.8-44.8-16.6-58.2-25-29 15.5-61.5 25.8-94.5 25.8-31.9 0-60.6-9.9-80.4-18.9-5.9-2.6-11.1-5.3-15.6-7.7-4.5 2.4-9.7 5.1-15.6 7.7-19.8 9-48.5 18.9-80.4 18.9-33.9 0-65.5-10.3-94.5-25.8-13.4 8.4-33.71 19.2-58.23 25-17.21 4-34.42-6.7-38.43-23.9-4.01-17.2 6.69-34.5 23.9-38.5 18.1-4.2 36.22-13.3 50.56-25.2 11.2-9.5 27.3-10.2 39.2-1.7h.1c22.1 15.3 50.5 26.1 77.4 26.1 27.5 0 55-10.6 77.5-26.1 11.1-7.9 25.9-7.9 37 0 21.6 15.5 50 26.1 77.5 26.1zm-77.5 85.9c21.6 15.5 50 26.1 77.5 26.1 26.9 0 55.4-10.8 77.4-26.1h.1c11.9-8.5 28-7.8 39.2 1.7 14.3 11.9 32.5 21 50.6 25.2 17.2 4 27.9 21.3 23.9 38.5s-22.1 27.9-38.5 23.9c-24.5-5.8-44.8-16.6-58.2-25-29 15.5-61.5 25.8-94.5 25.8-31.9 0-60.6-9.9-80.4-18.9-5.9-2.6-11.1-5.3-15.6-7.7-4.5 2.4-9.7 5.1-15.6 7.7-19.8 9-48.5 18.9-80.4 18.9-33.9 0-65.5-10.3-94.5-25.8-13.4 8.4-33.71 19.2-58.23 25-17.21 4-34.42-6.7-38.43-23.9-4.01-17.2 6.69-34.5 23.9-38.5 18.1-4.2 36.22-13.3 50.56-25.2 11.2-9.5 27.3-10.2 39.2-1.7h.1c22.1 15.3 50.5 26.1 77.4 26.1 27.5 0 55-10.6 77.5-26.1 11.1-7.9 25.9-7.9 37 0z"/></svg>
